X: 1
T: the Mug of Brown Ale
M: 6/8
L: 1/8
R: Jig
B: The Portland Collection
K: Ador
[| "Am"eAA fAA | gfg afe | "G"dBA GFG |~B2A B^cd | "Am"eAA fAA | gfg afe | "G"dBB gBB | BAG "Am"A3 |]
[| "Am"efg a2a | aba afe | "G"def g2g | gba ged  | "Am"efg a2a | aba afe | "G"dBB gBB | BAG "Am"A3 |]
